img/4Our_team/logosocialresourses/facebook.svg

<svg width="44" height="44" viewBox="0 0 44 44" fill="none" xmlns="http://www.w3.org/2000/svg">
<path d="M44 22C44 28.0751 41.5376 33.5751 37.5564 37.5563C33.5751 41.5375 28.0751 44 22 44C15.9249 44 10.4249 41.5375 6.44365 37.5563C2.46243 33.5751 0 28.0751 0 22C0 15.9248 2.46243 10.4248 6.44365 6.44362C10.4249 2.4624 15.9249 -3.05176e-05 22 -3.05176e-05C28.0751 -3.05176e-05 33.5751 2.4624 37.5564 6.44362C41.5376 10.4248 44 15.9248 44 22Z" fill="white"/>
<g clip-path="url(#clip0)">
<path d="M25.3308 15.3208H27.1566V12.1408C26.8416 12.0975 25.7583 12 24.4966 12C21.8641 12 20.0608 13.6558 20.0608 16.6992V19.5H17.1558V23.055H20.0608V32H23.6224V23.0558H26.4099L26.8524 19.5008H23.6216V17.0517C23.6224 16.0242 23.8991 15.3208 25.3308 15.3208Z" fill="#AFB1B8"/>
</g>
<defs>
<clipPath id="clip0">
<rect width="20" height="20" fill="white" transform="translate(12 12)"/>
</clipPath>
</defs>
</svg>

<svg width="44" height="44" fill="none" xmlns="http://www.w3.org/2000/svg"><path d="M44 22a21.931 21.931 0 01-6.444 15.556A21.932 21.932 0 0122 44a21.931 21.931 0 01-15.556-6.444A21.931 21.931 0 010 22 21.931 21.931 0 016.444 6.444 21.931 21.931 0 0122 0a21.931 21.931 0 0115.556 6.444A21.931 21.931 0 0144 22z" fill="#fff"/><g clip-path="url(#clip0)"><path d="M25.33 15.32h1.827v-3.18a23.588 23.588 0 00-2.66-.14c-2.633 0-4.436 1.656-4.436 4.7v2.8h-2.905v3.555h2.905V32h3.561v-8.944h2.788l.442-3.555h-3.23v-2.45c0-1.027.277-1.73 1.709-1.73z" fill="#AFB1B8"/></g><defs><clipPath id="clip0"><path fill="#fff" transform="translate(12 12)" d="M0 0h20v20H0z"/></clipPath></defs></svg>
